packages/icons/svg/Social_SocialNetwork_Linkedin_48px.svg

<svg xmlns="http://www.w3.org/2000/svg" viewBox="0 0 48 48"><path d="M25.28 22.35v-.06.06zM39 7H9a2 2 0 00-2 2v30a2 2 0 002 2h30a2 2 0 002-2V9a2 2 0 00-2-2zM17.36 35.48h-5.12V20.12h5.12zm-.47-18.21a2.9 2.9 0 01-2.1.77 2.82 2.82 0 01-2-.77 2.55 2.55 0 01-.79-1.89 2.47 2.47 0 01.81-1.9 2.92 2.92 0 012.09-.76 2.79 2.79 0 012.06.76 2.57 2.57 0 01.8 1.9 2.52 2.52 0 01-.87 1.89zm18.86 18.21h-5.11v-8.21q0-3.48-2.57-3.48a2.53 2.53 0 00-1.64.54 3.46 3.46 0 00-1 1.32 3.5 3.5 0 00-.16 1.24v8.59h-5.1q.06-13.9 0-15.36h5.11v2.17a5.15 5.15 0 014.58-2.53 5.58 5.58 0 014.28 1.75 7.4 7.4 0 011.61 5.16zM25.28 22.35v-.06.06z"/><path d="M39 7H9a2 2 0 00-2 2v30a2 2 0 002 2h30a2 2 0 002-2V9a2 2 0 00-2-2zM17.36 35.48h-5.12V20.12h5.12zm-.47-18.21a2.9 2.9 0 01-2.1.77 2.82 2.82 0 01-2-.77 2.55 2.55 0 01-.79-1.89 2.47 2.47 0 01.81-1.9 2.92 2.92 0 012.09-.76 2.79 2.79 0 012.06.76 2.57 2.57 0 01.8 1.9 2.52 2.52 0 01-.87 1.89zm18.86 18.21h-5.11v-8.21q0-3.48-2.57-3.48a2.53 2.53 0 00-1.64.54 3.46 3.46 0 00-1 1.32 3.5 3.5 0 00-.16 1.24v8.59h-5.1q.06-13.9 0-15.36h5.11v2.17a5.15 5.15 0 014.58-2.53 5.58 5.58 0 014.28 1.75 7.4 7.4 0 011.61 5.16z"/></svg>

<svg xmlns="http://www.w3.org/2000/svg" viewBox="0 0 48 48"><defs></defs><g id="Icon"><path  d="M25.28,22.35v-.06l0,.06Z"/><path  d="M39,7H9A2,2,0,0,0,7,9V39a2,2,0,0,0,2,2H39a2,2,0,0,0,2-2V9A2,2,0,0,0,39,7ZM17.36,35.48H12.24V20.12h5.12Zm-.47-18.21a2.9,2.9,0,0,1-2.1.77h0a2.82,2.82,0,0,1-2-.77,2.55,2.55,0,0,1-.79-1.89,2.47,2.47,0,0,1,.81-1.9,2.92,2.92,0,0,1,2.09-.76,2.79,2.79,0,0,1,2.06.76,2.57,2.57,0,0,1,.8,1.9A2.52,2.52,0,0,1,16.89,17.27ZM35.75,35.48H30.64V27.27q0-3.48-2.57-3.48a2.53,2.53,0,0,0-1.64.54,3.46,3.46,0,0,0-1,1.32,3.5,3.5,0,0,0-.16,1.24v8.59H20.17q.06-13.9,0-15.36h5.11v2.17a5.15,5.15,0,0,1,4.58-2.53,5.58,5.58,0,0,1,4.28,1.75,7.4,7.4,0,0,1,1.61,5.16Z"/><path  d="M25.28,22.35v-.06l0,.06Z"/><path  d="M39,7H9A2,2,0,0,0,7,9V39a2,2,0,0,0,2,2H39a2,2,0,0,0,2-2V9A2,2,0,0,0,39,7ZM17.36,35.48H12.24V20.12h5.12Zm-.47-18.21a2.9,2.9,0,0,1-2.1.77h0a2.82,2.82,0,0,1-2-.77,2.55,2.55,0,0,1-.79-1.89,2.47,2.47,0,0,1,.81-1.9,2.92,2.92,0,0,1,2.09-.76,2.79,2.79,0,0,1,2.06.76,2.57,2.57,0,0,1,.8,1.9A2.52,2.52,0,0,1,16.89,17.27ZM35.75,35.48H30.64V27.27q0-3.48-2.57-3.48a2.53,2.53,0,0,0-1.64.54,3.46,3.46,0,0,0-1,1.32,3.5,3.5,0,0,0-.16,1.24v8.59H20.17q.06-13.9,0-15.36h5.11v2.17a5.15,5.15,0,0,1,4.58-2.53,5.58,5.58,0,0,1,4.28,1.75,7.4,7.4,0,0,1,1.61,5.16Z"/></g></svg>
